src/sources/forus-platform/resources/_platform-common/assets/img/features/icons/bng/icon-step-1.svg

<svg width="25" height="24" viewBox="0 0 25 24" fill="none" xmlns="http://www.w3.org/2000/svg">
    <path d="M17.6665 9H7.6665V7H17.6665M17.6665 13H7.6665V11H17.6665M14.6665 17H7.6665V15H14.6665M12.6665 3C12.9317 3 13.1861 3.10536 13.3736 3.29289C13.5611 3.48043 13.6665 3.73478 13.6665 4C13.6665 4.26522 13.5611 4.51957 13.3736 4.70711C13.1861 4.89464 12.9317 5 12.6665 5C12.4013 5 12.1469 4.89464 11.9594 4.70711C11.7719 4.51957 11.6665 4.26522 11.6665 4C11.6665 3.73478 11.7719 3.48043 11.9594 3.29289C12.1469 3.10536 12.4013 3 12.6665 3ZM19.6665 3L15.4865 3C15.0665 1.84 13.9665 1 12.6665 1C11.3665 1 10.2665 1.84 9.8465 3H5.6665C5.13607 3 4.62736 3.21071 4.25229 3.58579C3.87722 3.96086 3.6665 4.46957 3.6665 5L3.6665 19C3.6665 19.5304 3.87722 20.0391 4.25229 20.4142C4.62736 20.7893 5.13607 21 5.6665 21H19.6665C20.1969 21 20.7056 20.7893 21.0807 20.4142C21.4558 20.0391 21.6665 19.5304 21.6665 19V5C21.6665 4.46957 21.4558 3.96086 21.0807 3.58579C20.7056 3.21071 20.1969 3 19.6665 3Z" fill="white"/>
</svg>

<svg width="25" height="24" fill="none" xmlns="http://www.w3.org/2000/svg"><path d="M17.666 9h-10V7h10m0 6h-10v-2h10m-3 6h-7v-2h7m-2-12a1 1 0 1 1 0 2 1 1 0 0 1 0-2Zm7 0h-4.18c-.42-1.16-1.52-2-2.82-2-1.3 0-2.4.84-2.82 2h-4.18a2 2 0 0 0-2 2v14a2 2 0 0 0 2 2h14a2 2 0 0 0 2-2V5a2 2 0 0 0-2-2Z" fill="#fff"/></svg>
